T: Plane Tree, The
M: 6/8
L: 1/8
K: Emin
|: EGB B2 B | cBA B2 B | cde dcB | AcA B3 |EGB B2 B | cBA B2 B | cde dcB | AGD E3 :||: e2 ^d2 =d2 | ^c2 =c2 B2 | BcA B2 B | cBA B3 |e2 ^d2 =d2 | ^c2 =c2 B2 | BcA B2 B | AGF E3 :|
